c2corg_ui/static/img/documents/activities/snowshoeing.svg

<?xml version="1.0" encoding="UTF-8" standalone="no"?>
<svg
   xmlns:dc="http://purl.org/dc/elements/1.1/"
   xmlns:cc="http://creativecommons.org/ns#"
   xmlns:rdf="http://www.w3.org/1999/02/22-rdf-syntax-ns#"
   xmlns:svg="http://www.w3.org/2000/svg"
   xmlns="http://www.w3.org/2000/svg"
   xmlns:sodipodi="http://sodipodi.sourceforge.net/DTD/sodipodi-0.dtd"
   xmlns:inkscape="http://www.inkscape.org/namespaces/inkscape"
   height="65"
   width="65"
   id="svg5707"
   version="1.1"
   inkscape:version="0.91 r13725"
   sodipodi:docname="snowshoeing.svg">
  <metadata
     id="metadata5721">
    <rdf:RDF>
      <cc:Work
         rdf:about="">
        <dc:format>image/svg+xml</dc:format>
        <dc:type
           rdf:resource="http://purl.org/dc/dcmitype/StillImage" />
        <dc:title />
      </cc:Work>
    </rdf:RDF>
  </metadata>
  <defs
     id="defs5719" />
  <sodipodi:namedview
     pagecolor="#ffffff"
     bordercolor="#666666"
     borderopacity="1"
     objecttolerance="10"
     gridtolerance="10"
     guidetolerance="10"
     inkscape:pageopacity="0"
     inkscape:pageshadow="2"
     inkscape:window-width="928"
     inkscape:window-height="1028"
     id="namedview5717"
     showgrid="false"
     inkscape:zoom="10.269366"
     inkscape:cx="22.453828"
     inkscape:cy="23.573544"
     inkscape:window-x="3585"
     inkscape:window-y="24"
     inkscape:window-maximized="0"
     inkscape:current-layer="svg5707" />
  <g
     id="snowshoeing"
     ng-click="editCtrl.pushToArray(route, 'activities', 'snowshoeing', $event)"
     class="activity-icon"
     transform="matrix(1,0,0,-1,-96.80275,76.732543)">
    <title
       id="title5710">snowshoeing</title>
    <g
       id="g5283"
       transform="translate(-6.4,11.2)">
      <g
         transform="translate(164.91963,33.02392)"
         id="g24">
        <path
           style="fill:#ffaa45;fill-opacity:1;fill-rule:nonzero;stroke:none"
           d="m 31.695312,3.4121094 c -16.140999,0 -29.226562,13.0855626 -29.226562,29.2265626 0,16.141 13.085563,29.224609 29.226562,29.224609 16.140001,0 29.22461,-13.083609 29.22461,-29.224609 0,-16.141 -13.084609,-29.2265626 -29.22461,-29.2265626 z m 4.384766,6.9472656 c 1.224121,0.07647 2.06836,1.046875 2.06836,1.046875 0.149999,0.522 0.360484,1.044906 0.646484,1.503906 0.467,0.749 0.337375,1.445063 -0.01563,2.164063 -0.11,0.223 -0.323828,0.462875 -0.298828,0.671875 0.06,0.499 -0.109766,0.908218 -0.509766,1.074218 -0.514,0.213 -0.242047,1.11525 -0.998047,1.03125 -0.01,0.399 -0.07691,0.845594 -0.0039,1.183594 0.566,2.629 0.294922,5.330078 0.294922,5.330078 -0.082,0.087 -0.07764,0.286782 -0.05664,0.425782 0.008,0.057 0.164906,0.132859 0.253907,0.130859 0.41,-0.007 0.832968,0.110453 1.167968,-0.310547 0.536,-0.672 1.294172,-0.253015 1.951172,-0.291016 0.228,-0.013 0.413047,1.097501 0.248047,1.3125 -0.311,0.407001 -0.536547,1.044641 -0.935547,1.181641 -0.575,0.197 -0.802844,0.665703 -1.214844,0.970703 -0.345,0.255 -0.266375,0.503203 0.01563,0.783203 0.279,0.279 0.54025,0.375532 0.78125,0.01953 0.284,-0.422 0.672141,-0.4455 1.119141,-0.4375 0.343,0.006 0.462891,0.116937 0.462891,0.460937 -0.001,0.187 0.102265,0.385594 0.197265,0.558594 0.239,0.44 0.170391,0.801469 -0.224609,1.105469 -0.204,0.156 -0.390188,0.351937 -0.617188,0.460937 -0.543,0.261 -0.85375,0.670563 -1.09375,1.226563 -0.493,1.142 -0.841593,2.340218 -1.433593,3.449218 -0.212,0.398 -0.117204,0.974672 0.0918,1.513672 0.527,1.357 0.783954,2.80275 1.126954,4.21875 0.199,0.823 0.155828,1.459953 0.04883,2.501953 -0.813,7.865 1.091797,7.392578 1.091797,7.392578 0.501,-0.402999 0.731156,-0.221328 1.035156,0.138672 0.334,0.395 1.177797,0.09653 1.216797,0.894532 0.253,-0.037 0.520812,-0.03323 0.757812,-0.115235 0.704,-0.246 1.404797,-0.509781 2.091797,-0.800781 0.417,-0.177 0.581344,0.136516 0.777344,0.353516 0.242,0.267 0.310375,0.539515 0.109375,0.728515 -1.152,1.081 -2.687469,1.951453 -4.355469,1.939453 -3.715,-0.028 -7.432484,-0.04552 -11.146484,0.02148 -0.715,0.013 -1.294797,-0.345516 -1.966797,-0.353516 -0.445,-0.005 -0.336688,-0.355125 -0.304688,-0.578125 0.02,-0.143 0.200844,-0.438109 0.339844,-0.537109 0.071,-0.051 0.209406,-0.0038 0.316406,-0.0098 1.733,-0.107 3.464266,-0.215266 5.197266,-0.322265 0.053,-0.003 0.112109,0.01205 0.162109,-0.002 0.433,-0.124 0.956391,-0.14225 1.275391,-0.40625 0,0 0.372703,0.01458 -0.529297,-2.732422 -0.257,-0.783 -0.249687,-1.632125 -0.304687,-2.453124 -0.054,-0.804 -0.0035,-1.614876 -0.01953,-2.421876 -0.002,-0.122999 -0.114781,-0.245187 -0.175781,-0.367187 -0.114,0.114 -0.283984,0.208703 -0.333984,0.345703 -0.42,1.173 -0.842578,2.340844 -1.392578,3.464844 -0.127,0.259 0.01683,0.72925 0.173828,1.03125 0.291,0.557 0.04717,0.686094 -0.423828,0.621094 -0.615,-0.084 -0.284438,0.614656 -0.648438,0.722656 -0.122,0.036 -0.22975,0.116781 -0.34375,0.175781 -0.027,-0.096 -0.106312,-0.245203 -0.07031,-0.283203 0.383,-0.408 0.351484,-0.752844 0.02148,-1.214844 -0.149,-0.208 -0.206281,-0.915875 0.511719,-0.421875 0.025,0.017 0.294312,-0.196125 0.320312,-0.328125 0.19,-0.997 0.771313,-1.838062 1.070313,-2.789062 0.025,-0.081 -0.03308,-0.199157 -0.08008,-0.285156 -0.009,-0.017 -0.162844,0.01064 -0.214844,0.05664 0,0 -5.379844,3.090094 -5.839844,3.496094 0.169,0.078 0.364953,0.253797 0.501953,0.216797 0.38,-0.104 0.737563,-0.294078 1.101563,-0.455078 0.364,-0.162 0.716843,-0.349375 1.089843,-0.484375 0.127,-0.045 0.299172,0.03655 0.451172,0.06055 -0.056,0.115001 -0.08088,0.501454 -0.171875,0.564454 -0.625,0.432 -1.280625,0.821437 -1.890625,1.273437 -0.364,0.27 -0.938343,0.402375 -0.777343,1.109375 0.072,0.317 -0.442719,0.576406 -0.761719,0.441406 -1.012,-0.428 -1.323719,-0.340218 -2.761719,-0.199218 l -8.228515,0.851562 c -0.298001,0.023 -0.633094,0.0647 -0.871094,0.220703 -0.418,0.273 -0.632344,-0.242328 -0.777344,-0.486328 -0.237,-0.403 0.220875,-0.55375 0.421875,-0.59375 l 10.154297,-1.617187 c 0.61,-0.083 0.666203,-0.108 0.408203,-0.75 -0.268,-0.665 -0.316406,-1.372578 -0.941406,-1.892578 -0.205,-0.171 -0.196391,-0.691204 -0.150391,-1.033204 0.024,-0.18 0.340391,-0.320515 0.525391,-0.478515 0,0 5.075172,-2.515703 6.201172,-4.720703 0.455,-0.889 0.864625,-1.807344 1.390625,-2.652344 0.257,-0.411 0.262422,-0.663 0.107422,-1.125 -0.496001,-1.481 -1.251235,-2.831594 -1.990235,-4.183594 -0.298,-0.545 -0.451656,-1.327375 -0.472656,-2.109375 -0.049,0.028 -0.08594,0.05078 -0.08594,0.05078 -0.094,0.008 -1.349687,0.236766 -1.804687,0.134766 -0.456,-0.103 -1.00586,-0.560547 -1.00586,-0.560547 L 26.5,29.822266 c 0,0 -0.1505,-0.142954 -0.3125,-0.251954 0,0 -1.032891,-0.544281 -0.962891,-0.863281 0,0 -1.112718,-3.253625 0.363282,-5.765625 0.183,-0.311 0.337781,-0.700187 0.800781,-1.367187 0.462,-0.666 0.867937,-0.592516 1.585937,-1.603516 0.717,-1.011 0.56886,-0.933953 1.00586,-1.751953 0.437,-0.819 0.851562,-1.037109 0.851562,-1.037109 0,0 0.576235,-0.47811 0.740235,-0.53711 0.165,-0.061 0.46989,-0.248187 0.71289,-0.242187 0.243,0.005 0.501578,0.07758 0.642578,0.142578 0.144,0.063 0.615735,0.304125 0.927735,0.328125 0.695,-0.704 0.935812,-1.575813 0.757812,-2.632813 -0.101,-0.603 0.190125,-1.252125 -0.296875,-1.828125 -0.104,-0.124 0.06995,-0.620265 0.251953,-0.822265 0.906,-1.00125 1.777246,-1.276348 2.511719,-1.230469 z m 1.626953,17.214844 c -0.076,0.017 -0.14675,0.06556 -0.21875,0.101562 l 0.115235,0.115235 c 0.068,-0.038 0.137984,-0.07624 0.208984,-0.115235 -0.036,-0.036 -0.07847,-0.107562 -0.105469,-0.101562 z m 0.13086,2.519531 c -0.08283,-0.0049 -0.1685,0.01586 -0.25,0.06836 -0.62,0.398 -0.891266,1.053907 -0.697266,1.753907 0.052,0.187 0.284766,0.487812 0.259766,0.507812 -0.753,0.575 0.180734,1.105641 0.05273,1.681641 -0.048,0.216 0.320047,0.525015 0.498047,0.791015 0.037,-0.252 0.03309,-0.519953 0.121094,-0.751953 0.105,-0.275 0.319593,-0.50825 0.433593,-0.78125 0.324,-0.775 0.621735,-1.558984 0.927735,-2.333984 -0.097,-0.241 -0.169188,-0.423469 -0.242188,-0.605469 -0.074,0.183 -0.114328,0.396109 -0.236328,0.53711 -0.076,0.087 -0.276875,0.0648 -0.421875,0.0918 0.016,-0.113 0.04797,-0.226843 0.04297,-0.339843 -0.01575,-0.35475 -0.239797,-0.604563 -0.488281,-0.619141 z m -4.970703,8.146484 c -0.075,0.033 -0.203797,0.05156 -0.216797,0.101563 -0.285,1.082 -1.144547,1.847515 -1.560547,2.853515 -0.051,0.123001 -0.0088,0.285688 -0.0098,0.429688 0.112,-0.04 0.222938,-0.08114 0.335938,-0.119141 0.33,-0.113 0.58514,-0.186593 0.61914,-0.683593 0.031,-0.453 0.399516,-0.878219 0.603516,-1.324219 0.142,-0.312 0.258375,-0.637625 0.359375,-0.890625 -0.064,-0.182 -0.09786,-0.274188 -0.130859,-0.367188 z"
           transform="matrix(1,0,0,-1,-60.91963,32.637904)"
           id="path26"
           inkscape:connector-curvature="0" />
      </g>
      <g
         transform="translate(141.20323,31.55672)"
         id="g28" />
    </g>
  </g>
</svg>

<?xml version="1.0" encoding="UTF-8" standalone="no"?>
<svg
   xmlns:dc="http://purl.org/dc/elements/1.1/"
   xmlns:cc="http://creativecommons.org/ns#"
   xmlns:rdf="http://www.w3.org/1999/02/22-rdf-syntax-ns#"
   xmlns:svg="http://www.w3.org/2000/svg"
   xmlns="http://www.w3.org/2000/svg"
   xmlns:sodipodi="http://sodipodi.sourceforge.net/DTD/sodipodi-0.dtd"
   xmlns:inkscape="http://www.inkscape.org/namespaces/inkscape"
   height="65"
   width="65"
   id="svg5707"
   version="1.1"
   inkscape:version="0.91 r13725"
   sodipodi:docname="skishoeing.svg">
  <metadata
     id="metadata5721">
    <rdf:RDF>
      <cc:Work
         rdf:about="">
        <dc:format>image/svg+xml</dc:format>
        <dc:type
           rdf:resource="http://purl.org/dc/dcmitype/StillImage" />
        <dc:title />
      </cc:Work>
    </rdf:RDF>
  </metadata>
  <defs
     id="defs5719" />
  <sodipodi:namedview
     pagecolor="#ffffff"
     bordercolor="#666666"
     borderopacity="1"
     objecttolerance="10"
     gridtolerance="10"
     guidetolerance="10"
     inkscape:pageopacity="0"
     inkscape:pageshadow="2"
     inkscape:window-width="1855"
     inkscape:window-height="1056"
     id="namedview5717"
     showgrid="false"
     inkscape:zoom="10.269366"
     inkscape:cx="42.951685"
     inkscape:cy="23.573544"
     inkscape:window-x="1665"
     inkscape:window-y="24"
     inkscape:window-maximized="1"
     inkscape:current-layer="svg5707" />
  <g
     id="snowshoeing"
     ng-click="editCtrl.pushToArray(route, 'activities', 'snowshoeing', $event)"
     class="activity-icon"
     transform="matrix(1,0,0,-1,-97.6,76.861824)">
    <title
       id="title5710">snowshoeing</title>
    <g
       id="g5283"
       transform="translate(-6.4,11.2)">
      <g
         transform="translate(164.91963,33.02392)"
         id="g24">
        <path
           style="fill:#ffaa45;fill-opacity:1;fill-rule:nonzero;stroke:none"
           d="M 31.695312 3.4121094 C 15.554313 3.4121094 2.46875 16.497672 2.46875 32.638672 C 2.46875 48.779672 15.554313 61.863281 31.695312 61.863281 C 47.835313 61.863281 60.919922 48.779672 60.919922 32.638672 C 60.919922 16.497672 47.835313 3.4121094 31.695312 3.4121094 z M 36.080078 10.359375 C 37.304199 10.43584 38.148438 11.40625 38.148438 11.40625 C 38.298437 11.92825 38.508922 12.451156 38.794922 12.910156 C 39.261922 13.659156 39.132297 14.355219 38.779297 15.074219 C 38.669297 15.297219 38.455469 15.537094 38.480469 15.746094 C 38.540469 16.245094 38.370703 16.654312 37.970703 16.820312 C 37.456703 17.033312 37.728656 17.935562 36.972656 17.851562 C 36.962656 18.250562 36.89575 18.697156 36.96875 19.035156 C 37.53475 21.664156 37.263672 24.365234 37.263672 24.365234 C 37.181672 24.452234 37.186031 24.652016 37.207031 24.791016 C 37.215031 24.848016 37.371937 24.923875 37.460938 24.921875 C 37.870938 24.914875 38.293906 25.032328 38.628906 24.611328 C 39.164906 23.939328 39.923078 24.358313 40.580078 24.320312 C 40.808078 24.307312 40.993125 25.417813 40.828125 25.632812 C 40.517125 26.039813 40.291578 26.677453 39.892578 26.814453 C 39.317578 27.011453 39.089734 27.480156 38.677734 27.785156 C 38.332734 28.040156 38.411359 28.288359 38.693359 28.568359 C 38.972359 28.847359 39.233609 28.943891 39.474609 28.587891 C 39.758609 28.165891 40.14675 28.142391 40.59375 28.150391 C 40.93675 28.156391 41.056641 28.267328 41.056641 28.611328 C 41.055641 28.798328 41.158906 28.996922 41.253906 29.169922 C 41.492906 29.609922 41.424297 29.971391 41.029297 30.275391 C 40.825297 30.431391 40.639109 30.627328 40.412109 30.736328 C 39.869109 30.997328 39.558359 31.406891 39.318359 31.962891 C 38.825359 33.104891 38.476766 34.303109 37.884766 35.412109 C 37.672766 35.810109 37.767562 36.386781 37.976562 36.925781 C 38.503562 38.282781 38.760516 39.728531 39.103516 41.144531 C 39.302516 41.967531 39.259344 42.604484 39.152344 43.646484 C 38.339344 51.511484 40.244141 51.039062 40.244141 51.039062 C 40.745141 50.636063 40.975297 50.817734 41.279297 51.177734 C 41.613297 51.572734 42.457094 51.274266 42.496094 52.072266 C 42.749094 52.035266 43.016906 52.039031 43.253906 51.957031 C 43.957906 51.711031 44.658703 51.44725 45.345703 51.15625 C 45.762703 50.97925 45.927047 51.292766 46.123047 51.509766 C 46.365047 51.776766 46.433422 52.049281 46.232422 52.238281 C 45.080422 53.319281 43.544953 54.189734 41.876953 54.177734 C 38.161953 54.149734 34.444469 54.132219 30.730469 54.199219 C 30.015469 54.212219 29.435672 53.853703 28.763672 53.845703 C 28.318672 53.840703 28.426984 53.490578 28.458984 53.267578 C 28.478984 53.124578 28.659828 52.829469 28.798828 52.730469 C 28.869828 52.679469 29.008234 52.726703 29.115234 52.720703 C 30.848234 52.613703 32.5795 52.505437 34.3125 52.398438 C 34.3655 52.395437 34.424609 52.410484 34.474609 52.396484 C 34.907609 52.272484 35.431 52.254234 35.75 51.990234 C 35.75 51.990234 36.122703 52.004812 35.220703 49.257812 C 34.963703 48.474812 34.971016 47.625687 34.916016 46.804688 C 34.862016 46.000688 34.912484 45.189812 34.896484 44.382812 C 34.894484 44.259813 34.781703 44.137625 34.720703 44.015625 C 34.606703 44.129625 34.436719 44.224328 34.386719 44.361328 C 33.966719 45.534328 33.544141 46.702172 32.994141 47.826172 C 32.867141 48.085172 33.010969 48.555422 33.167969 48.857422 C 33.458969 49.414422 33.215141 49.543516 32.744141 49.478516 C 32.129141 49.394516 32.459703 50.093172 32.095703 50.201172 C 31.973703 50.237172 31.865953 50.317953 31.751953 50.376953 C 31.724953 50.280953 31.645641 50.13175 31.681641 50.09375 C 32.064641 49.68575 32.033125 49.340906 31.703125 48.878906 C 31.554125 48.670906 31.496844 47.963031 32.214844 48.457031 C 32.239844 48.474031 32.509156 48.260906 32.535156 48.128906 C 32.725156 47.131906 33.306469 46.290844 33.605469 45.339844 C 33.630469 45.258844 33.572391 45.140687 33.525391 45.054688 C 33.516391 45.037687 33.362547 45.065328 33.310547 45.111328 C 33.310547 45.111328 27.930703 48.201422 27.470703 48.607422 C 27.639703 48.685422 27.835656 48.861219 27.972656 48.824219 C 28.352656 48.720219 28.710219 48.530141 29.074219 48.369141 C 29.438219 48.207141 29.791062 48.019766 30.164062 47.884766 C 30.291062 47.839766 30.463234 47.921312 30.615234 47.945312 C 30.559234 48.060313 30.534359 48.446766 30.443359 48.509766 C 29.818359 48.941766 29.162734 49.331203 28.552734 49.783203 C 28.188734 50.053203 27.614391 50.185578 27.775391 50.892578 C 27.847391 51.209578 27.332672 51.468984 27.013672 51.333984 C 26.001672 50.905984 25.689953 50.993766 24.251953 51.134766 L 16.023438 51.986328 C 15.725437 52.009328 15.390344 52.051031 15.152344 52.207031 C 14.734344 52.480031 14.52 51.964703 14.375 51.720703 C 14.138 51.317703 14.595875 51.166953 14.796875 51.126953 L 24.951172 49.509766 C 25.561172 49.426766 25.617375 49.401766 25.359375 48.759766 C 25.091375 48.094766 25.042969 47.387188 24.417969 46.867188 C 24.212969 46.696188 24.221578 46.175984 24.267578 45.833984 C 24.291578 45.653984 24.607969 45.513469 24.792969 45.355469 C 24.792969 45.355469 29.868141 42.839766 30.994141 40.634766 C 31.449141 39.745766 31.858766 38.827422 32.384766 37.982422 C 32.641766 37.571422 32.647188 37.319422 32.492188 36.857422 C 31.996187 35.376422 31.240953 34.025828 30.501953 32.673828 C 30.203953 32.128828 30.050297 31.346453 30.029297 30.564453 C 29.980297 30.592453 29.943359 30.615234 29.943359 30.615234 C 29.849359 30.623234 28.593672 30.852 28.138672 30.75 C 27.682672 30.647 27.132812 30.189453 27.132812 30.189453 L 26.5 29.822266 C 26.5 29.822266 26.3495 29.679312 26.1875 29.570312 C 26.1875 29.570312 25.154609 29.026031 25.224609 28.707031 C 25.224609 28.707031 24.111891 25.453406 25.587891 22.941406 C 25.770891 22.630406 25.925672 22.241219 26.388672 21.574219 C 26.850672 20.908219 27.256609 20.981703 27.974609 19.970703 C 28.691609 18.959703 28.543469 19.03675 28.980469 18.21875 C 29.417469 17.39975 29.832031 17.181641 29.832031 17.181641 C 29.832031 17.181641 30.408266 16.703531 30.572266 16.644531 C 30.737266 16.583531 31.042156 16.396344 31.285156 16.402344 C 31.528156 16.407344 31.786734 16.479922 31.927734 16.544922 C 32.071734 16.607922 32.543469 16.849047 32.855469 16.873047 C 33.550469 16.169047 33.791281 15.297234 33.613281 14.240234 C 33.512281 13.637234 33.803406 12.988109 33.316406 12.412109 C 33.212406 12.288109 33.386359 11.791844 33.568359 11.589844 C 34.474359 10.588594 35.345605 10.313496 36.080078 10.359375 z M 37.707031 27.574219 C 37.631031 27.591219 37.560281 27.639781 37.488281 27.675781 L 37.603516 27.791016 C 37.671516 27.753016 37.7415 27.714781 37.8125 27.675781 C 37.7765 27.639781 37.734031 27.568219 37.707031 27.574219 z M 37.837891 30.09375 C 37.755063 30.088891 37.669391 30.109609 37.587891 30.162109 C 36.967891 30.560109 36.696625 31.216016 36.890625 31.916016 C 36.942625 32.103016 37.175391 32.403828 37.150391 32.423828 C 36.397391 32.998828 37.331125 33.529469 37.203125 34.105469 C 37.155125 34.321469 37.523172 34.630484 37.701172 34.896484 C 37.738172 34.644484 37.734266 34.376531 37.822266 34.144531 C 37.927266 33.869531 38.141859 33.636281 38.255859 33.363281 C 38.579859 32.588281 38.877594 31.804297 39.183594 31.029297 C 39.086594 30.788297 39.014406 30.605828 38.941406 30.423828 C 38.867406 30.606828 38.827078 30.819937 38.705078 30.960938 C 38.629078 31.047938 38.428203 31.025734 38.283203 31.052734 C 38.299203 30.939734 38.331172 30.825891 38.326172 30.712891 C 38.310422 30.358141 38.086375 30.108328 37.837891 30.09375 z M 32.867188 38.240234 C 32.792187 38.273234 32.663391 38.291797 32.650391 38.341797 C 32.365391 39.423797 31.505844 40.189312 31.089844 41.195312 C 31.038844 41.318313 31.081078 41.481 31.080078 41.625 C 31.192078 41.585 31.303016 41.543859 31.416016 41.505859 C 31.746016 41.392859 32.001156 41.319266 32.035156 40.822266 C 32.066156 40.369266 32.434672 39.944047 32.638672 39.498047 C 32.780672 39.186047 32.897047 38.860422 32.998047 38.607422 C 32.934047 38.425422 32.900188 38.333234 32.867188 38.240234 z "
           transform="matrix(1,0,0,-1,-60.91963,32.637904)"
           id="path26" />
      </g>
      <g
         transform="translate(141.20323,31.55672)"
         id="g28" />
    </g>
  </g>
</svg>
